X: 161927
T: Paddy Be Aisy
S: "Roche Collection of Traditional Irish Music" [II/24/254]
L: 1/8
M: 9/8
R: slip jig
K: Ador
B | A3 edB efg | A3 edB d2B | 
A3 edB efg | fed edB d2 :|
e | fef afd efg | fef afd g2e | 
fef afd efg |1 fed edB d2 :|2\
fed edB d2 |]
